X:549
T:Adele's Reel
M:4/4
L:1/8
R:Reel
K:F
|: FA~AA (cA)FA | G3 A B(G_EG) | FA~AA (cA)FA | GBcd _ecBG | 
FA~AA (cA)FA | G3 B _e(dcB) | Ac~cc (dc)Ac | [1 (BG)EG F3 E :| [2 BGEG F2 B2 ||
|: cffe f(dcd) | _e3 d c(BAB) | cffe f(dcd) | _ecBG F3 B | c(fga) b(agf) | 
_eBG_E B,2 (A,B,) | CFFG (AB)cA | [1 (BG)EG F3 B :| [2 BGEG F4 ||

